icons/svg/old_road_shields/h_mot_shield8.svg

<svg width="67" height="17" viewBox="0 0 67 17" fill="none" xmlns="http://www.w3.org/2000/svg">
<g clip-path="url(#clip0)">
<path fill-rule="evenodd" clip-rule="evenodd" d="M7.85599 0.00201416H58.627C62.941 0.00201416 66.455 3.52301 66.455 7.84301V8.73001C66.455 13.052 62.941 16.572 58.627 16.572H7.85599C3.54199 16.572 -0.00100708 13.052 -0.00100708 8.73001V7.84301C-0.00100708 3.52201 3.54199 0.00201416 7.85599 0.00201416Z" fill="#6883E7"/>
<path fill-rule="evenodd" clip-rule="evenodd" d="M8.199 1.06201H58.342C62.085 1.06201 65.142 4.12401 65.142 7.87301V8.64501C65.142 12.395 62.085 15.456 58.342 15.456H8.199C4.456 15.456 1.399 12.395 1.399 8.64501V7.87201C1.399 4.12301 4.456 1.06201 8.199 1.06201Z" fill="white"/>
<path fill-rule="evenodd" clip-rule="evenodd" d="M8.942 2.435H57.542C60.6 2.435 63.085 4.924 63.085 7.987V8.617C63.085 11.65 60.6 14.138 57.542 14.138H8.942C5.884 14.138 3.399 11.65 3.399 8.617V7.987C3.399 4.924 5.885 2.435 8.942 2.435Z" fill="#6883E7"/>
</g>
<defs>
<clipPath id="clip0">
<path d="M0 0H66.455V16.574H0V0Z" fill="white"/>
</clipPath>
</defs>
</svg>

<?xml version="1.0" encoding="utf-8"?>
<!-- Generator: Adobe Illustrator 16.0.4, SVG Export Plug-In . SVG Version: 6.00 Build 0)  -->
<!DOCTYPE svg PUBLIC "-//W3C//DTD SVG 1.1//EN" "http://www.w3.org/Graphics/SVG/1.1/DTD/svg11.dtd">
<svg version="1.1" id="Слой_1" xmlns="http://www.w3.org/2000/svg" xmlns:xlink="http://www.w3.org/1999/xlink" x="0px" y="0px"
	 width="66.455px" height="16.574px" viewBox="0 0 66.455 16.574" enable-background="new 0 0 66.455 16.574" xml:space="preserve">
<path fill-rule="evenodd" clip-rule="evenodd" fill="#6883E7" d="M7.856,0.002h50.771c4.314,0,7.828,3.521,7.828,7.841V8.73
	c0,4.322-3.514,7.842-7.828,7.842H7.856c-4.314,0-7.857-3.52-7.857-7.842V7.843C-0.001,3.522,3.542,0.002,7.856,0.002L7.856,0.002z"
	/>
<path fill-rule="evenodd" clip-rule="evenodd" fill="#FFFFFF" d="M8.199,1.062h50.143c3.743,0,6.8,3.062,6.8,6.811v0.772
	c0,3.75-3.057,6.811-6.8,6.811H8.199c-3.743,0-6.8-3.061-6.8-6.811V7.872C1.399,4.123,4.456,1.062,8.199,1.062L8.199,1.062z"/>
<path fill-rule="evenodd" clip-rule="evenodd" fill="#6883E7" d="M8.942,2.435h48.6c3.058,0,5.543,2.489,5.543,5.552v0.63
	c0,3.033-2.485,5.521-5.543,5.521h-48.6c-3.058,0-5.543-2.488-5.543-5.521v-0.63C3.399,4.924,5.885,2.435,8.942,2.435L8.942,2.435z"
	/>
</svg>
